projects/plugins/jetpack/images/jupiter.svg

<svg height="100" viewBox="0 0 50 100" width="50" xmlns="http://www.w3.org/2000/svg"><g fill="none" opacity=".5"><path d="m.94 40.19c-5.3 26.97 12.28 53.13 39.25 58.43s53.13-12.27 58.43-39.25c5.3-26.97-12.27-53.13-39.25-58.43-26.97-5.3-53.13 12.28-58.43 39.25" fill="#ccced0"/><g fill="#f6f6f6"><path d="m49.59 38.06c1.7-8.67 10.11-14.33 18.79-12.62 8.67 1.7 14.32 10.11 12.62 18.79-1.7 8.67-10.12 14.32-18.79 12.62-8.68-1.7-14.33-10.12-12.62-18.79"/><path d="m53.93 52.41c-5.27-5.31-11.78-9.2-18.95-11.33l2.23-11.34c7.43.74 14.94-.4 21.82-3.33z"/><path d="m30.93 34.4c.62-3.15 3.67-5.2 6.82-4.58 3.14.61 5.19 3.67 4.57 6.81-.61 3.15-3.67 5.2-6.81 4.58-3.15-.62-5.2-3.67-4.58-6.81"/><path d="m35.54 41.22-49.76-9.78 2.23-11.36 49.76 9.77z"/><path d="m30.34 67.29c1.06-5.36 6.25-8.85 11.61-7.8s8.85 6.25 7.8 11.61c-1.06 5.36-6.25 8.85-11.61 7.79-5.36-1.05-8.85-6.24-7.8-11.6"/><path d="m33.02 76.15c-3.25-3.28-7.27-5.68-11.7-7l1.38-7c4.59.46 9.23-.25 13.48-2.06z"/><path d="m18.82 65.02c.38-1.94 2.27-3.2 4.21-2.82s3.21 2.26 2.83 4.21c-.38 1.94-2.27 3.21-4.21 2.82-1.95-.38-3.21-2.26-2.83-4.21"/><path d="m43.91 78.29c4.25-1.8 8.89-2.51 13.48-2.05l1.38-7.01c-4.43-1.31-8.45-3.72-11.7-7z"/><path d="m21.67 69.24-89.28-17.54 1.38-7.02 89.28 17.54z"/><path d="m35.02 68.89c.05-2.9 2.45-5.21 5.35-5.15 2.91.05 5.21 2.45 5.16 5.35-.06 2.91-2.46 5.21-5.36 5.16-2.9-.06-5.21-2.46-5.15-5.36"/></g></g></svg>

<svg xmlns="http://www.w3.org/2000/svg" height="100" width="50" version="1.1" viewBox="0 0 50 100"><defs><path d="M0.95 40.37C-4.37 67.46 13.27 93.73 40.37 99.05 67.46 104.37 93.73 86.73 99.05 59.63 104.37 32.54 86.73 6.27 59.63 0.95 32.54-4.37 6.27 13.27 0.95 40.37"/></defs><g fill="none" opacity="0.5" stroke="none" strokeWidth="1"><g transform="translate(-1215.000000, -93.000000)"><g transform="translate(160.000000, 32.000000)"><g transform="translate(1055.000000, 61.000000)"><path d="M0.94 40.19C-4.36 67.16 13.22 93.32 40.19 98.62 67.16 103.92 93.32 86.35 98.62 59.37 103.92 32.4 86.35 6.24 59.37 0.94 32.4-4.36 6.24 13.22 0.94 40.19" fill="#CCCED0"/><g><mask fill="white"><path d="M0.95 40.37C-4.37 67.46 13.27 93.73 40.37 99.05 67.46 104.37 93.73 86.73 99.05 59.63 104.37 32.54 86.73 6.27 59.63 0.95 32.54-4.37 6.27 13.27 0.95 40.37"/></mask><g/><path d="M49.59 38.06C51.29 29.39 59.7 23.73 68.38 25.44 77.05 27.14 82.7 35.55 81 44.23 79.3 52.9 70.88 58.55 62.21 56.85 53.53 55.15 47.88 46.73 49.59 38.06" fill="#F6F6F6"/><path d="M53.93 52.41C48.66 47.1 42.15 43.21 34.98 41.08L37.21 29.74C44.64 30.48 52.15 29.34 59.03 26.41L53.93 52.41" fill="#F6F6F6"/><path d="M30.93 34.4C31.55 31.25 34.6 29.2 37.75 29.82 40.89 30.43 42.94 33.49 42.32 36.63 41.71 39.78 38.65 41.83 35.51 41.21 32.36 40.59 30.31 37.54 30.93 34.4" fill="#F6F6F6"/><polyline fill="#F6F6F6" points="35.54 41.22 -14.22 31.44 -11.99 20.08 37.77 29.85 35.54 41.22"/><path d="M30.34 67.29C31.4 61.93 36.59 58.44 41.95 59.49 47.31 60.54 50.8 65.74 49.75 71.1 48.69 76.46 43.5 79.95 38.14 78.89 32.78 77.84 29.29 72.65 30.34 67.29" fill="#F6F6F6"/><path d="M33.02 76.15C29.77 72.87 25.75 70.47 21.32 69.15L22.7 62.15C27.29 62.61 31.93 61.9 36.18 60.09L33.02 76.15" fill="#F6F6F6"/><path d="M18.82 65.02C19.2 63.08 21.09 61.82 23.03 62.2 24.97 62.58 26.24 64.46 25.86 66.41 25.48 68.35 23.59 69.62 21.65 69.23 19.7 68.85 18.44 66.97 18.82 65.02" fill="#F6F6F6"/><path d="M43.91 78.29C48.16 76.49 52.8 75.78 57.39 76.24L58.77 69.23C54.34 67.92 50.32 65.51 47.07 62.23L43.91 78.29" fill="#F6F6F6"/><polyline fill="#F6F6F6" points="21.67 69.24 -67.61 51.7 -66.23 44.68 23.05 62.22 21.67 69.24"/></g><path d="M35.02 68.89C35.07 65.99 37.47 63.68 40.37 63.74 43.28 63.79 45.58 66.19 45.53 69.09 45.47 72 43.07 74.3 40.17 74.25 37.27 74.19 34.96 71.79 35.02 68.89" fill="#F6F6F6"/></g></g></g></g></svg>
